img/logos/precursor.svg

<?xml version="1.0" encoding="UTF-8" standalone="no"?>
<svg width="256px" height="299px" viewBox="0 0 256 299" version="1.1" xmlns="http://www.w3.org/2000/svg" xmlns:xlink="http://www.w3.org/1999/xlink" preserveAspectRatio="xMinYMin meet">
    <g>
        <path d="M128,0 C57.344,0 0,57.344 0,128 C0,145.834667 3.66933333,162.816 10.24,178.261333 L49.4933333,161.536 C45.056,151.210667 42.6666667,139.946667 42.6666667,128 C42.6666667,80.896 80.896,42.6666667 128,42.6666667 C175.104,42.6666667 213.333333,80.896 213.333333,128 C213.333333,171.690667 180.48,207.616 138.24,212.736 L143.36,255.061333 C206.762667,247.466667 256,193.536 256,128 C256,57.344 198.656,0 128,0 L128,0 Z M115.2,298.666667 L72.5333333,298.666667 L72.5333333,106.666667 L115.2,106.666667 L115.2,298.666667 Z" fill="#333333"></path>
    </g>
</svg>

<svg width="256" height="299" viewBox="0 0 256 299" xmlns="http://www.w3.org/2000/svg" preserveAspectRatio="xMinYMin meet"><path d="M128 0C57.344 0 0 57.344 0 128c0 17.835 3.67 34.816 10.24 50.26l39.253-16.724c-4.437-10.325-6.826-21.59-6.826-33.536 0-47.104 38.23-85.333 85.333-85.333 47.104 0 85.333 38.23 85.333 85.333 0 43.69-32.853 79.616-75.093 84.736l5.12 42.325C206.763 247.468 256 193.537 256 128 256 57.344 198.656 0 128 0zm-12.8 298.667H72.533v-192H115.2v192z" fill="#333"/></svg>
